X: 1
T: Gort A' Charn
M: 6/8
L: 1/8
R: jig
K: Ddor
|:DFA d2f|edc dAF|GFG AGA|cBA GEA|
DED F2A|dfe dcA|GFG cBA|GEA D2A:|
|:DFA dfa|gec dAF|GFG AGA|cBA GFG|
[1AGA dfa|gec dAF|GFG cBA|GEA D2A:|
[2fed cBA|cBA GFG|AGA cBA|GEA D3||
